source/img/icon-fb.svg

<svg width="44" height="45" viewBox="0 0 44 45" fill="none" xmlns="http://www.w3.org/2000/svg">
<path d="M44 22.457C44 10.2965 34.1503 0.438477 22 0.438477C9.84973 0.438477 0 10.2965 0 22.457C0 33.4468 8.04504 42.5561 18.5625 44.2079V28.8217H12.9766V22.457H18.5625V17.606C18.5625 12.0876 21.847 9.03945 26.8722 9.03945C29.2785 9.03945 31.7969 9.46949 31.7969 9.46949V14.8881H29.0228C26.29 14.8881 25.4375 16.5855 25.4375 18.3285V22.457H31.5391L30.5637 28.8217H25.4375V44.2079C35.955 42.5561 44 33.4468 44 22.457Z" fill="#CFDCE3"/>
<path d="M30.5637 28.8216L31.5391 22.4569H25.4375V18.3285C25.4375 16.5872 26.29 14.8881 29.0228 14.8881H31.7969V9.46948C31.7969 9.46948 29.2793 9.03943 26.8722 9.03943C21.847 9.03943 18.5625 12.0876 18.5625 17.606V22.4569H12.9766V28.8216H18.5625V44.2079C20.8403 44.5646 23.1597 44.5646 25.4375 44.2079V28.8216H30.5637Z" fill="white"/>
</svg>

<svg width="44" height="45" viewBox="0 0 44 45" fill="none" xmlns="http://www.w3.org/2000/svg"><path d="M44 22.457C44 10.297 34.15.438 22 .438S0 10.296 0 22.457c0 10.99 8.045 20.1 18.563 21.75V28.823h-5.586v-6.365h5.585v-4.851c0-5.518 3.285-8.567 8.31-8.567 2.407 0 4.925.43 4.925.43v5.42h-2.774c-2.733 0-3.585 1.697-3.585 3.44v4.128h6.101l-.975 6.365h-5.127v15.386C35.956 42.556 44 33.447 44 22.457z" fill="#CFDCE3"/><path d="M30.564 28.822l.975-6.365h-6.102v-4.129c0-1.74.853-3.44 3.586-3.44h2.774V9.47s-2.518-.43-4.925-.43c-5.025 0-8.31 3.049-8.31 8.567v4.85h-5.585v6.366h5.585v15.386a22.2 22.2 0 006.875 0V28.822h5.127z" fill="#fff"/></svg>
